dist/icons/svgs/list-solid.svg

<svg xmlns="http://www.w3.org/2000/svg" width="24" height="24" fill="currentcolor" class="icon-list-solid" viewBox="0 0 24 24">
  <path d="M3.5625 3.875H5.4375C5.94531 3.875 6.375 4.30469 6.375 4.8125V6.6875C6.375 7.23438 5.94531 7.625 5.4375 7.625H3.5625C3.01562 7.625 2.625 7.23438 2.625 6.6875V4.8125C2.625 4.30469 3.01562 3.875 3.5625 3.875ZM9.5 4.5H20.75C21.4141 4.5 22 5.08594 22 5.75C22 6.45312 21.4141 7 20.75 7H9.5C8.79688 7 8.25 6.45312 8.25 5.75C8.25 5.08594 8.79688 4.5 9.5 4.5ZM9.5 10.75H20.75C21.4141 10.75 22 11.3359 22 12C22 12.7031 21.4141 13.25 20.75 13.25H9.5C8.79688 13.25 8.25 12.7031 8.25 12C8.25 11.3359 8.79688 10.75 9.5 10.75ZM9.5 17H20.75C21.4141 17 22 17.5859 22 18.25C22 18.9531 21.4141 19.5 20.75 19.5H9.5C8.79688 19.5 8.25 18.9531 8.25 18.25C8.25 17.5859 8.79688 17 9.5 17ZM2.625 11.0625C2.625 10.5547 3.01562 10.125 3.5625 10.125H5.4375C5.94531 10.125 6.375 10.5547 6.375 11.0625V12.9375C6.375 13.4844 5.94531 13.875 5.4375 13.875H3.5625C3.01562 13.875 2.625 13.4844 2.625 12.9375V11.0625ZM3.5625 16.375H5.4375C5.94531 16.375 6.375 16.8047 6.375 17.3125V19.1875C6.375 19.7344 5.94531 20.125 5.4375 20.125H3.5625C3.01562 20.125 2.625 19.7344 2.625 19.1875V17.3125C2.625 16.8047 3.01562 16.375 3.5625 16.375Z"/>
</svg>

<svg xmlns="http://www.w3.org/2000/svg" width="24" height="24" fill="currentColor" class="icon-list-solid" viewBox="0 0 24 24">
  <path d="M3.563 3.875h1.874a.95.95 0 0 1 .938.938v1.875c0 .546-.43.937-.937.937H3.563c-.547 0-.938-.39-.938-.937V4.813c0-.508.39-.938.938-.938M9.5 4.5h11.25c.664 0 1.25.586 1.25 1.25C22 6.453 21.414 7 20.75 7H9.5c-.703 0-1.25-.547-1.25-1.25 0-.664.547-1.25 1.25-1.25m0 6.25h11.25c.664 0 1.25.586 1.25 1.25 0 .703-.586 1.25-1.25 1.25H9.5c-.703 0-1.25-.547-1.25-1.25 0-.664.547-1.25 1.25-1.25m0 6.25h11.25c.664 0 1.25.586 1.25 1.25 0 .703-.586 1.25-1.25 1.25H9.5c-.703 0-1.25-.547-1.25-1.25 0-.664.547-1.25 1.25-1.25m-6.875-5.937c0-.508.39-.938.938-.938h1.874a.95.95 0 0 1 .938.938v1.874c0 .547-.43.938-.937.938H3.563c-.547 0-.938-.39-.938-.937zm.938 5.312h1.874a.95.95 0 0 1 .938.938v1.875c0 .546-.43.937-.937.937H3.563c-.547 0-.938-.39-.938-.937v-1.875c0-.508.39-.938.938-.938"/>
</svg>
